X: 05090
T: WAYNE'S HORNPIPE
C: Bob McQuillen 14 Oct 80
B: Bob's Note Book 05 #90
%R: hornpipe, reel
Z: 2020 John Chambers <jc:trillian.mit.edu>
M: C
L: 1/8
K: Em
BG \
| E2E2 EFGA | B2ed egfe | dedB d2BG | ABAF D2BG |\
| E2EG ABGA | B2ed edBA | BedB AGBA | G2E2 E2 :|
|: ge \
| dBGB dedB | GBdB A2BA | GEDE DEGB | AGED E2GA |\
| B2ed e2ge | dedB d2ba | gage dBAB | G2E2 E2 :|
%%begintext align
%% "Smash the
%% Window" Band is really lucky to have
%% a great flute player named Wayne
%% Cripps. He has an old black flute
%% that sounds so beautiful.
%%endtext

%%sep 1 1 500

%%sep 1 1 500

